X:1
T:Nicht die Träne kann es sagen
T:Nicht die Träne kann es sagen
T:Vierstimmiges Trauerchor für Männerstimmen, event. für Alt- und Männerstimmen 
T:Peter Cornelius Op. 9 Nr. 2 
T:Thomas Moore
C:Peter Cornelius (Op. 9 Nr. 2)
Z:Thomas Moore
%%score [ 1 2 3 4 ]
L:1/8
Q:1/4=80
M:3/4
K:D
V:1 treble-8 nm="Tenor I."
V:2 treble-8 nm="Tenor II."
V:3 bass nm="Bass I."
V:4 bass nm="Bass II."
V:1
!p!"^Innig. Ziemlich bewegt\nIntimo. Poco mosso.\n"!<(! c2!<)! | f3!>(! e d B!>)! | B2 A2 A3/2 A/ | %3
w: |Trä- ne kann es|sa- gen, Die da|
w: |bol sei dein Ge-|den- ken Für des|
 d3 c B B | e4"^cresc." c3/2 g/ | g3 f ^d3/2 ^c/ | c2 ^B2!f! B3/2 a/ | a3 ^g ^e3/2 ^d/ | %8
w: fällt auf dei- nen|Sarg, Wel- ches|Leid um dich wir|tra- gen, Welch’ ein|Herz das Grab uns|
w: Schö- nen Macht und|Sieg. Leit’ uns,|hoch den Geist zu|len- ken, Hoch, wie|dei- ne See- le|
 (d2 ^^c2)!<(! ^e3/2 e/!<)! |!f! ^a3 f!>(! f =d!>)! | d2 c2!p! f f |"^poco rit." f ^d ^g3 f | %12
w: barg, _ Wel- ches|Leid um dich wir|tra- gen, Welch’ ein|Herz das Grab uns|
w: stieg, _ Leit’ uns,|hoch den Geist zu|len- ken, Hoch, wie|dei- ne See- le|
 (f2 f) z"^a tempo" ^d c |"^poco a poco cresc." ^B c f3 e | e2 c2 c c | =d d g3 =f | =f4 e d | %17
w: barg. _ Nur der|Trau- er heil’- ge|Stun- de, Nur ein|treu- ge- heg- ter|Gram, Nur der|
w: stieg, _ Le- be|fort in treu- en|Her- zen, Bis der|Tod den Gram be-|zwingt, Denn der|
 d!f! _e =a3 g | g2 ^f2!p! =f f |"^poco slargando" =f3 e f ^f | !tenuto!g4"^a tempo"!<(! =c c!<)! | %21
w: Schmer- zen off’- ne|Wun- de Sa- ge,|was der Tod uns|nahm, Nur der|
w: Tod hat kei- ne|Schmer- zen, Wenn er|dich uns wie- der-|bringt, Denn der|
!f! a3 g g =f |!>(! =f2 e2!>)!!p! d d | d =g!>(! !tenuto!g3 ^f!>)! |!pp! d6 |] %25
w: Schmer- zen off’- ne|Wun- de Sa- ge,|was der Tod uns|nahm.|
w: Tod hat kei- ne|Schmer- zen, Wenn er|dich uns wie- der-|bringt.|
V:2
!p!!<(! A3/2 ^A/!<)! | B3!>(! B B G!>)! | G2 G2 G3/2 G/ | F3 F B B | (B2 ^A2)"^cresc." =A3/2 B/ | %5
w: Nicht die|Trä- ne kann es|sa- gen, Die da|fällt auf dei- nen|Sarg, _ Wel- ches|
w: Ein Sym-|bol sei dein Ge-|den- ken Für des|Schö- nen Macht und|Sieg. _ Leit’ uns,|
 =c3 c F3/2 A/ | A2 A2!f! ^B3/2 ^c/ | =d3 d ^G3/2 B/ | B4!<(! =d3/2 d/!<)! |!f! d3 ^d!>(! d B!>)! | %10
w: Leid um dich wir|tra- gen, Welch’ ein|Herz das Grab uns|barg, Wel- ches|Leid um dich wir|
w: hoch den Geist zu|len- ken, Hoch, wie|dei- ne See- le|stieg, Leit’ uns,|hoch den Geist zu|
 B2 ^A2!p! =A A |"^poco rit." ^A A B3 A | ^A2- A z"^a tempo" A A | %13
w: tra- gen, Welch’ ein|Herz das Grab uns|barg. _ Nur der|
w: len- ken, Hoch, wie|dei- ne See- le|stieg, _ Le- be|
"^poco a poco cresc." =A A !>!=G3 G | G2 G2 G G | _A A !>!A3 A | _A4 ^G G | =A!f! A A3 A | %18
w: Trau- er heil’- ge|Stun- de, Nur ein|treu- ge- heg- ter|Gram, Nur der|Schmer- zen off’- ne|
w: fort in treu- en|Her- zen, Bis der|Tod den Gram be-|zwingt, Denn der|Tod hat kei- ne|
 _B2 B2!p! B B |"^poco slargando" =B3 B B B | !tenuto!_B4"^a tempo"!<(! B B!<)! |!f! A3 A A A | %22
w: Wun- de Sa- ge,|was der Tod uns|nahm, Nur der|Schmer- zen off’- ne|
w: Schmer- zen, Wenn er|dich uns wie- der-|bringt, Denn der|Tod hat kei- ne|
!>(! _B2 d2!>)!!p! =F F | ^F =B!>(! !tenuto!B3 A!>)! |!pp! F6 |] %25
w: Wun- de Sa- ge,|was der Tod uns|nahm.|
w: Schmer- zen, Wenn er|dich uns wie- der-|bringt.|
V:3
!p!!<(! D,3/2 D,/!<)! | D,3!>(! D, G, D,!>)! | E,2 E,2 E,3/2 E,/ | F,3 F, F, F, | %4
w: Nicht die|Trä- ne kann es|sa- gen, Die da|fällt auf dei- nen|
w: Ein Sym-|bol sei dein Ge-|den- ken Für des|Schö- nen Macht und|
 F,4"^cresc." G,3/2 G,/ | A,3 A, A,3/2 F,/ | F,2 F,2!f! A,3/2 A,/ | B,3 B, B,3/2 ^G,/ | %8
w: Sarg, Wel- ches|Leid um dich wir|tra- gen, Welch’ ein|Herz das Grab uns|
w: Sieg. Leit’ uns,|hoch den Geist zu|len- ken, Hoch, wie|dei- ne See- le|
 ^G,4!<(! B,3/2 B,/!<)! |!f! ^G,3 ^A,!>(! A, G,!>)! | ^G,2 ^A,2!p! ^D, D, | %11
w: barg, Wel- ches|Leid um dich wir|tra- gen, Welch’ ein|
w: stieg, Leit’ uns,|hoch den Geist zu|len- ken, Hoch, wie|
"^poco rit." C, F, F,2 ^E,2 | F,2- F, z"^a tempo" F, F, |"^poco a poco cresc." F, =G, ^C4- | %14
w: Herz das Grab uns|barg. _ Nur der|Trau- er heil’-|
w: dei- ne See- le|stieg, _ Le- be|fort in treu-|
!<(! C =E,!<)! =F,2!>(! =E,2!>)! | =F, F, D3 D | D!<(! =F, (E,F,)!<)! _A,!>(! F,!>)! | %17
w: * ge Stun- de,|Nur ein treu- ge-|heg- ter Gram, _ Nur der|
w: * en Her- zen,|Bis der Tod den|Gram be- zwingt, _ Denn der|
 =F,!f! F, _E3 _E, | =E,2 E,2!p! =F, F, |"^poco slargando" =F,3 F, F, F, | %20
w: Schmer- zen off’- ne|Wun- de Sa- ge,|was der Tod uns|
w: Tod hat kei- ne|Schmer- zen, Wenn er|dich uns wie- der-|
 (!tenuto!=F,2 E,2)"^a tempo"!<(! =C C!<)! |!f! ^C3 C D _E |!>(! D2 ^G,2!>)!!p! G, G, | %23
w: nahm, _ Nur der|Schmer- zen off’- ne|Wun- de Sa- ge,|
w: bringt, _ Denn der|Tod hat kei- ne|Schmer- zen, Wenn er|
 A, ^C!>(! !tenuto!C3 C!>)! |!pp! A,6 |] %25
w: was der Tod uns|nahm.|
w: dich uns wie- der-|bringt.|
V:4
!p!!<(! D,3/2 D,/!<)! | G,,3!>(! G,, B,, B,,!>)! | C,2 C,2 C,3/2 C,/ | B,,3 C, D, D, | %4
w: Nicht die|Trä- ne kann es|sa- gen, Die da|fällt auf dei- nen|
w: Ein Sym-|bol sei dein Ge-|den- ken Für des|Schö- nen Macht und|
 C,4"^cresc." E,3/2 E,/ | ^D,3 D, ^B,,3/2 C,/ | ^D,2 D,2!f! F,3/2 F,/ | ^E,3 E, ^^C,3/2 ^D,/ | %8
w: Sarg, Wel- ches|Leid um dich wir|tra- gen, Welch’ ein|Herz das Grab uns|
w: Sieg. Leit’ uns,|hoch den Geist zu|len- ken, Hoch, wie|dei- ne See- le|
 ^E,4!<(! ^G,3/2 G,/!<)! |!f! ^E,3 F,!>(! F, F,!>)! | F,2 F,2!p! ^B,, B,, | %11
w: barg, Wel- ches|Leid um dich wir|tra- gen, Welch’ ein|
w: stieg, Leit’ uns,|hoch den Geist zu|len- ken, Hoch, wie|
"^poco rit." C, C, C,2 C,2 | F,,2- F,, z"^a tempo" F,, F,, | %13
w: Herz das Grab uns|barg. _ Nur der|
w: dei- ne See- le|stieg, _ Le- be|
"^poco a poco cresc." (F,, =A,,2) A,, ^G,, A,, | _B,,2 B,,2 B,, B,, | _B,,3 B,, A,, B,, | %16
w: Trau- * er heil’- ge|Stun- de, Nur ein|treu- ge- heg- ter|
w: fort _ in treu- en|Her- zen, Bis der|Tod den Gram be-|
 =B,,4 B,, B,, | =C,3!f! C, =B,, C, | ^C,2 C,2!p! C, C, |"^poco slargando" C, ^B,, C,2 (D,G,,) | %20
w: Gram, Nur der|Schmer- zen off’- ne|Wun- de Sa- ge,|was der Tod uns _|
w: zwingt, Denn der|Tod hat kei- ne|Schmer- zen, Wenn er|dich uns wie- der- *|
 !tenuto!=C,4"^a tempo"!<(! E, E,!<)! |!f! =F,3 F, F, F, |!>(! _B,,2 B,,2!>)!!p! B,, B,, | %23
w: nahm, Nur der|Schmer- zen off’- ne|Wun- de Sa- ge,|
w: bringt, Denn der|Tod hat kei- ne|Schmer- zen, Wenn er|
 A,, A,,!>(! !tenuto!A,,3 A,,!>)! |!pp! D,6 |] %25
w: was der Tod uns|nahm.|
w: dich uns wie- der-|bringt.|

